X:15
T:The Washer Woman
C:Trad
S:Petrie's Collection of Strathspey Reels and Country Dances &c., 1790
Z:Steve Wyrick , 3/5/04
N:Petrie's First Collection, page 7
L:1/8
M:6/8
R:Jig
K:F
c/B/|AFF CFF|AFA cBA| BGG G,GG|BGB dcB |
     AFF CFF|AFA cBA|TBAB GcB |AFF F2 :|
   c|fcc Acc|fcf agf| ecc Gcc |ece gfe |
     fcc Acc|fag fcA|TBAB GcB |AFF F2c |
     fcc Acc|fcf agf| ecc Gcc |ece gfe |
     dbb caa|Bgg Aff|TBAB GcB |AFF F2 |]
